X:140
%%etbk:tnset id:49,pos:2,rep:3x,ant:
%%etbk:wsite http://www.thesession.org/tunes/display/1406
%%etbk:pldat 2014-02-15T15:33,2014-02-10T18:03,2014-02-09T13:17,2013-11-26T15:41,2013-11-24T14:46
T:Follow me up 
T: John Naughton's
T: Jimmy O'Reilly's
Z: Piano Box Version by Martin Fleischmann
H: Created 2013-02-19 /  Last Modified 2013-11-26
M: 4/4
L: 1/8
R: reel
K: Ador
|: "am"!4!ABAG !2!E!3!G!1!D!2!E | "G"!1!G2!3!BG !4!cG!3!B!1!G | "am"!4!ABAG !2!E!3!G!1!D2 | "em"!4!e!5!g!3!d!2!B "am"{d}!2!B!1!AA2 |
| "am"!4!ABAG !2!E!3!G!1!D!2!E | "G"!1!G2!3!BG !4!cG!3!B!1!G | "am"!4!ABAG !2!E!3!G!1!D2 | "em"!4!e!5!g!3!d!2!B "am"{d}!2!B!1!AA2:||
|: "am"!3!ageg !3!a{b}!3!a!3!ab | "G"!2!g!1!e!2!e!1!e !2!g3!4!b | "am"!3!ageg !3!a{b}!3!aga | "em"!4!b!2!g!2!g{b}!2!g bgg{b}g |
| "am"!3!agea !3!ag!1!e!5!a | "G"!4!g!3!e!2!d!1!B !1!G3G | "am"!2!e!5!aag !2!eg!3!fa | "em"!4!ge!1!d!2!B "am"{d}B!1!AA2:|


